svgs/light/server.svg

<svg xmlns="http://www.w3.org/2000/svg" viewBox="0 0 512 512"><!-- Font Awesome Pro 6.0.0-alpha2 by @fontawesome - https://fontawesome.com License - https://fontawesome.com/license (Commercial License) --><path d="M448 32H64C28.654 32 0 60.654 0 96V160C0 195.346 28.654 224 64 224H448C483.348 224 512 195.346 512 160V96C512 60.654 483.348 32 448 32ZM480 160C480 177.645 465.645 192 448 192H64C46.355 192 32 177.645 32 160V96C32 78.355 46.355 64 64 64H448C465.645 64 480 78.355 480 96V160ZM416 104C402.746 104 392 114.744 392 128C392 141.254 402.746 152 416 152C429.256 152 440 141.254 440 128C440 114.744 429.256 104 416 104ZM320 104C306.746 104 296 114.744 296 128C296 141.254 306.746 152 320 152C333.256 152 344 141.254 344 128C344 114.744 333.256 104 320 104ZM448 288H64C28.654 288 0 316.654 0 352V416C0 451.346 28.654 480 64 480H448C483.348 480 512 451.346 512 416V352C512 316.654 483.348 288 448 288ZM480 416C480 433.645 465.645 448 448 448H64C46.355 448 32 433.645 32 416V352C32 334.355 46.355 320 64 320H448C465.645 320 480 334.355 480 352V416ZM416 360C402.746 360 392 370.744 392 384C392 397.254 402.746 408 416 408C429.256 408 440 397.254 440 384C440 370.744 429.256 360 416 360ZM320 360C306.746 360 296 370.744 296 384C296 397.254 306.746 408 320 408C333.256 408 344 397.254 344 384C344 370.744 333.256 360 320 360Z"/></svg>

<svg xmlns="http://www.w3.org/2000/svg" viewBox="0 0 512 512"><!--! Font Awesome Pro 6.3.0 by @fontawesome - https://fontawesome.com License - https://fontawesome.com/license (Commercial License) Copyright 2023 Fonticons, Inc. --><path d="M448 32H64C28.65 32 0 60.65 0 96v64c0 35.35 28.65 64 64 64h384c35.35 0 64-28.65 64-64V96C512 60.65 483.3 32 448 32zM480 160c0 17.64-14.36 32-32 32H64C46.36 192 32 177.6 32 160V96c0-17.64 14.36-32 32-32h384c17.64 0 32 14.36 32 32V160zM416 104c-13.25 0-24 10.74-24 24c0 13.25 10.75 24 24 24c13.26 0 24-10.75 24-24C440 114.7 429.3 104 416 104zM320 104c-13.25 0-24 10.74-24 24c0 13.25 10.75 24 24 24c13.26 0 24-10.75 24-24C344 114.7 333.3 104 320 104zM448 288H64c-35.35 0-64 28.65-64 64v64c0 35.35 28.65 64 64 64h384c35.35 0 64-28.65 64-64v-64C512 316.7 483.3 288 448 288zM480 416c0 17.64-14.36 32-32 32H64c-17.64 0-32-14.36-32-32v-64c0-17.64 14.36-32 32-32h384c17.64 0 32 14.36 32 32V416zM416 360c-13.25 0-24 10.74-24 24c0 13.25 10.75 24 24 24c13.26 0 24-10.75 24-24C440 370.7 429.3 360 416 360zM320 360c-13.25 0-24 10.74-24 24c0 13.25 10.75 24 24 24c13.26 0 24-10.75 24-24C344 370.7 333.3 360 320 360z"/></svg>
